.local/share/icons/Gruvbox-Plus-Dark/panel/16/yd-busy1.svg

<svg width="16" height="16" version="1.1" xmlns="http://www.w3.org/2000/svg">
  <defs>
    <style id="current-color-scheme" type="text/css">.ColorScheme-Text { color:#ebdbb2; } .ColorScheme-Highlight { color:#458588; } .ColorScheme-NeutralText { color:#fe8019; } .ColorScheme-PositiveText { color:#689d6a; } .ColorScheme-NegativeText { color:#fb4934; }</style>
  </defs>
  <path class="ColorScheme-Text" d="m7.092 2.047c-3.556 0-2.728 3.248-4.549 4.226-0.0628 0.0356-0.0981 0.0684-0.1543 0.1035 1.2-0.7145 2.68-1.312 4.252-1.717 1.331-0.3424 2.681-0.5345 3.926-0.5586 0.032-2e-4 0.064-2e-4 0.095 0-1.2-0.3412-1.332-2.055-3.57-2.055z" fill="currentColor"/>
  <path class="ColorScheme-Text" d="m10.97 5.002c-1.245 0.0242-2.595 0.2163-3.926 0.5586-4.386 1.129-7.512 3.584-6.982 5.483 0.3055 1.085 1.778 1.801 3.971 1.931-1e-3 -8e-3 -3e-3 -0.015-0.0039-0.023-0.1184-1.027 0.5331-1.92 1.297-2.526 0.7638-0.605 1.746-1.045 2.85-1.279s2.136-0.223 3 0.037c0.812 0.245 1.576 0.778 1.764 1.694 2.198-1.233 3.338-2.719 3.008-3.92-0.35-1.258-2.259-2.008-4.977-1.955z" fill="currentColor"/>
  <path class="ColorScheme-Text" d="m9.662 10a1.859 3.577 76 0 0-1.377 0.142 1.859 3.577 76 0 0-3.279 2.6 1.859 3.577 76 0 0 3.709 1.115 1.859 3.577 76 0 0 3.277-2.599 1.859 3.577 76 0 0-2.33-1.258z" fill="currentColor" opacity=".3"/>
</svg>

<svg xmlns="http://www.w3.org/2000/svg" width="16" height="16" version="1">
 <defs>
  <style id="current-color-scheme" type="text/css">
   .ColorScheme-Text { color:#ebdbb2; } .ColorScheme-Highlight { color:#458588; }
  </style>
 </defs>
 <path style="fill:currentColor" class="ColorScheme-Text" d="M 7.092,2.0466 C 3.5364,2.0466 4.3636,5.2947 2.5432,6.2731 2.4804,6.3087 2.4451,6.3415 2.3889,6.3766 3.5894,5.6621 5.0692,5.0646 6.6408,4.6599 7.972,4.3175 9.322,4.1254 10.567,4.1013 10.599,4.1011 10.631,4.1011 10.662,4.1013 9.462,3.7601 9.33,2.0466 7.092,2.0466 Z"/>
 <path style="fill:currentColor" class="ColorScheme-Text" d="M 10.967,5.0016 C 9.722,5.0258 8.372,5.2179 7.041,5.5602 2.6547,6.689 -0.4714,9.144 0.0588,11.043 0.3643,12.128 1.8364,12.844 4.0295,12.974 4.0285,12.966 4.0265,12.959 4.0256,12.951 3.9072,11.924 4.5587,11.031 5.3225,10.425 6.0863,9.82 7.069,9.38 8.172,9.146 9.275,8.912 10.308,8.923 11.172,9.183 11.984,9.428 12.748,9.961 12.936,10.877 15.134,9.644 16.274,8.158 15.944,6.9567 15.594,5.6985 13.685,4.9487 10.967,5.0016 Z"/>
 <path style="opacity:0.3;fill:currentColor" class="ColorScheme-Text" d="M 9.662,10 A 1.8586,3.577 76.001 0 0 8.285,10.142 1.8586,3.577 76.001 0 0 5.0061,12.742 1.8586,3.577 76.001 0 0 8.715,13.857 1.8586,3.577 76.001 0 0 11.992,11.258 1.8586,3.577 76.001 0 0 9.662,10 Z"/>
</svg>
